packages/ui-icons/src/System/24/Check_invert_24.svg

<svg viewBox="0 0 32 32" xmlns="http://www.w3.org/2000/svg">
<path fill-rule="evenodd" clip-rule="evenodd" d="M16 28C22.6274 28 28 22.6274 28 16C28 9.37258 22.6274 4 16 4C9.37258 4 4 9.37258 4 16C4 22.6274 9.37258 28 16 28ZM14.6942 17.9843L21.0134 10.3125L22.5 11.6818C22.5 11.6818 14.962 20.8684 14.8 20.875C14.6635 20.875 10.3125 16.3908 10.3125 16.3908L11.7501 14.9659L14.6942 17.9843Z"/>
</svg>

<svg viewBox="0 0 32 32" xmlns="http://www.w3.org/2000/svg"><path fill-rule="evenodd" clip-rule="evenodd" d="M16 28c6.627 0 12-5.373 12-12S22.627 4 16 4 4 9.373 4 16s5.373 12 12 12Zm-1.306-10.016 6.32-7.672 1.486 1.37s-7.538 9.186-7.7 9.193c-.136 0-4.488-4.484-4.488-4.484l1.438-1.425 2.944 3.018Z"/></svg>
